!!!COM: Beethoven, Ludwig van
!!!CDT: 1770///-1827///
!!!ODT: 1798///-1800///
!!!OTL: String Quartet No. 4 in C Minor, Op. 18, No. 4
!!!OPS: Op. 18
!!!ONM: No. 4
!!!OMV: Mvmt. 4
!!!OMD: Allegro
!!!PDT: 1801///
!!!PPP: Vienna
!!!PPR: C. Haslinger qm Tobias
!!!ODE: Dem F&uuml;rsten von Lobkowitz gewidmet
!!!MPD: 1798///-1800///
**kern	**dynam	**kern	**dynam	**kern	**dynam	**kern	**dynam
*staff4	*staff4	*staff3	*staff3	*staff2	*staff2	*staff1	*staff1
*Icello	*Icello	*Iviola	*Iviola	*Ivioln	*Ivioln	*Ivioln	*Ivioln
*>[A,A,B,B,C,C,D,E,E,F,F1,F,F2,G,G1,G,G2]	*>[A,A,B,B,C,C,D,E,E,F,F1,F,F2,G,G1,G,G2]	*>[A,A,B,B,C,C,D,E,E,F,F1,F,F2,G,G1,G,G2]	*>[A,A,B,B,C,C,D,E,E,F,F1,F,F2,G,G1,G,G2]	*>[A,A,B,B,C,C,D,E,E,F,F1,F,F2,G,G1,G,G2]	*>[A,A,B,B,C,C,D,E,E,F,F1,F,F2,G,G1,G,G2]	*>[A,A,B,B,C,C,D,E,E,F,F1,F,F2,G,G1,G,G2]	*>[A,A,B,B,C,C,D,E,E,F,F1,F,F2,G,G1,G,G2]
*>norep[A,B,C,D,E,F,F2,G,G2]	*>norep[A,B,C,D,E,F,F2,G,G2]	*>norep[A,B,C,D,E,F,F2,G,G2]	*>norep[A,B,C,D,E,F,F2,G,G2]	*>norep[A,B,C,D,E,F,F2,G,G2]	*>norep[A,B,C,D,E,F,F2,G,G2]	*>norep[A,B,C,D,E,F,F2,G,G2]	*>norep[A,B,C,D,E,F,F2,G,G2]
*>A	*>A	*>A	*>A	*>A	*>A	*>A	*>A
*clefF4	*clefF4	*clefC3	*clefC3	*clefG2	*clefG2	*clefG2	*clefG2
*k[b-e-a-]	*k[b-e-a-]	*k[b-e-a-]	*k[b-e-a-]	*k[b-e-a-]	*k[b-e-a-]	*k[b-e-a-]	*k[b-e-a-]
*c:	*c:	*c:	*c:	*c:	*c:	*c:	*c:
*M2/2	*M2/2	*M2/2	*M2/2	*M2/2	*M2/2	*M2/2	*M2/2
*MM170	*MM170	*MM170	*MM170	*MM170	*MM170	*MM170	*MM170
4r	.	4r	.	4r	.	8ee-\L	p
.	.	.	.	.	.	8ff\J	.
=1	=1	=1	=1	=1	=1	=1	=1
4C/	p	4c\	p	4G/ 4e-/	p	8gg\L	.
.	.	.	.	.	.	8ee-\	.
4r	.	4r	.	4r	.	8ff\	.
.	.	.	.	.	.	8dd\J	.
4C/	.	4c\	.	4G/ 4e-/	.	8ee-\L	.
.	.	.	.	.	.	8cc\	.
4r	.	4r	.	4r	.	8dd\	.
.	.	.	.	.	.	8bn\J	.
=2	=2	=2	=2	=2	=2	=2	=2
4C/	.	4c\	.	4G/ 4e-/	.	8cc\L	.
.	.	.	.	.	.	8bn\	.
4r	.	4r	.	4r	.	8cc\	.
.	.	.	.	.	.	8dd\J	.
4r	.	4r	.	4r	.	8ee-\L	.
.	.	.	.	.	.	8een\	.
4C/	.	4G/ 4e-/	.	4cc\	.	8ff\	.
.	.	.	.	.	.	8ff#\J	.
=3	=3	=3	=3	=3	=3	=3	=3
4BBn/	<	4G\ 4f\	<	4dd\	<	4gg\	<
4C/	<	4G/ 4e-/	<	4cc\	.	4gg\	<
4GG/	.	4G/ 4d/	.	4bn\	.	4gg\	.
4C/	.	4G/ 4e-/	.	4cc\	.	4gg\	.
=4	=4	=4	=4	=4	=4	=4	=4
2.GG/	f	2.G/ 2.d/	f	2.bn\	f	2.gg\	f
4r	.	4r	.	4r	.	8ee-\L	p
.	.	.	.	.	.	8ff\J	.
=5	=5	=5	=5	=5	=5	=5	=5
4C/	p	4c\	p	4G/ 4e-/	p	8gg\L	.
.	.	.	.	.	.	8ee-\	.
4r	.	4r	.	4r	.	8ff\	.
.	.	.	.	.	.	8dd\J	.
4C/	.	4c\	.	4G/ 4e-/	.	8ee-\L	.
.	.	.	.	.	.	8cc\	.
4r	.	4r	.	4r	.	8dd\	.
.	.	.	.	.	.	8bn\J	.
=6	=6	=6	=6	=6	=6	=6	=6
4C/	.	4c\	.	4G/ 4e-/	.	8cc\L	.
.	.	.	.	.	.	8bn\	.
4r	.	4r	.	4r	.	8cc\	.
.	.	.	.	.	.	8dd\J	.
4r	.	4r	.	4r	.	8een\L	.
.	.	.	.	.	.	8ff#\	.
4C#/	.	4B-/	.	4G/ 4en/	.	8gg\	.
.	.	.	.	.	.	8aan\J	.
=7	=7	=7	=7	=7	=7	=7	=7
4D\	.	4B-/	.	4G/ 4d/	.	4bb-\	.
4C/	<	4G/	<	4g/	<	4c#/	<
4D\	.	4G/	.	4B-/	<	4d/	<
4DD/	.	4F#/	.	4An/	.	4d/	.
=8	=8	=8	=8	=8	=8	=8	=8
2.GG/	.	2.G/	.	2.G/	.	2.G/	.
=:|!|:	=:|!|:	=:|!|:	=:|!|:	=:|!|:	=:|!|:	=:|!|:	=:|!|:
*>B	*>B	*>B	*>B	*>B	*>B	*>B	*>B
4r	.	4r	.	4r	.	8gg\L	p
.	.	.	.	.	.	8aa-\J	.
=9	=9	=9	=9	=9	=9	=9	=9
4C/	p	4g\	p	4en/	p	4bb-\	.
4r	.	4r	.	4b-\	.	4een\	.
4F\	.	4c\	.	4a-/	.	4ff\	.
4r	.	4r	.	4f/	.	[4aa-\	.
=10	=10	=10	=10	=10	=10	=10	=10
4BB-/	.	4f\	.	4d/	.	4aa-\]	.
4r	.	4r	.	4a-/	.	4dd\	.
4E-\	.	4B-/	.	4g/	.	4ee-\	.
4r	.	4r	.	4e-/	.	[4gg\	.
=11	=11	=11	=11	=11	=11	=11	=11
4AA-/	.	4f\	.	4c/	.	4gg\]	.
4r	.	4r	.	8d/L	.	8ff\L	.
.	.	.	.	8e-/J	.	8ee-\J	.
4A-\	.	4c\	.	4f/	.	4dd\	.
4r	.	4r	.	4f#/	.	4cc\	.
=12	=12	=12	=12	=12	=12	=12	=12
2.G\	.	4d\	.	2.g/	.	4bn\	.
.	.	2Bn/	.	.	.	2dd\	.
4r	.	4r	.	4r	.	8ee-\L	p
.	.	.	.	.	.	8ff\J	.
=13	=13	=13	=13	=13	=13	=13	=13
4C/	p	4c\	p	4G/ 4e-/	p	8gg\L	.
.	.	.	.	.	.	8ee-\	.
4r	.	4r	.	4r	.	8ff\	.
.	.	.	.	.	.	8dd\J	.
4C/	.	4c\	.	4G/ 4e-/	.	8ee-\L	.
.	.	.	.	.	.	8cc\	.
4r	.	4r	.	4r	.	8dd\	.
.	.	.	.	.	.	8bn\J	.
=14	=14	=14	=14	=14	=14	=14	=14
4E-\	<	4c\	<	4G/ 4e-/	<	8cc\L	<
.	.	.	.	.	.	8bn\	<
4BB-/	<	4c\	<	4en/	<	8cc\	.
.	.	.	.	.	.	8dd\J	.
4AA-/	.	4c\	.	4f/	.	8ee-\L	.
.	.	.	.	.	.	8een\	.
4GG/	.	4en\	.	4c/ 4g/	.	8ff\	.
.	.	.	.	.	.	8gg\J	.
=15	=15	=15	=15	=15	=15	=15	=15
4FF/	.	4f\	.	4a-/	.	4aa-\	.
4AA-/	f	4c\	f	4cc\	f	4f#/	f
4GG/	.	4c\	.	4e-/	.	4g/	.
4GG/	.	4Bn/	.	4d/	.	4G/	.
=16	=16	=16	=16	=16	=16	=16	=16
2.CC/	.	2.C/ 2.c/	.	2.c/	.	2.c/	.
=	=	=	=	=	=	=	=
4r	.	4r	.	4e-/	p	4r	.
=17	=17	=17	=17	=17	=17	=17	=17
1A-	p	1c	p	2e-/	.	[1ee-	p
.	.	.	.	[2a-/	.	.	.
=18	=18	=18	=18	=18	=18	=18	=18
1B-	.	1d-	.	4a-/]	.	1ee-_	.
.	.	.	.	4g/	.	.	.
.	.	.	.	4f/	.	.	.
.	.	.	.	4g/	.	.	.
=19	=19	=19	=19	=19	=19	=19	=19
2c\	.	2e-\	.	4a-/	.	2ee-\]	.
.	.	.	.	4b-\	.	.	.
2F\	.	2A-/	.	4cc\	.	[2aa-\	.
.	.	.	.	4dd\	.	.	.
=20	=20	=20	=20	=20	=20	=20	=20
2E-\	.	2B-/	.	2ee-\	.	2aa-\]	.
[2e-\	.	2b-\	.	2dd-\	.	2gg\	.
=21	=21	=21	=21	=21	=21	=21	=21
(2e-\]	.	2an\	.	2cc\	.	2gg-\	.
2d-\	.	2b-\	<	2dd-\	<	2ff\	<
=22	=22	=22	=22	=22	=22	=22	=22
2d-\	.	2g\	.	2b-\	.	2ff-\	.
2c\)	>	2a-\	>	[2cc\	>	[2ee-\	>
=23	=23	=23	=23	=23	=23	=23	=23
2D-\	.	4f\	.	4cc\]	.	4ee-\]	.
.	.	4f\	.	4b-\	.	4dd-\	.
2E-\	.	4e-\	.	4a-/	.	4cc\	.
.	.	4d-\	.	4g/	.	4b-\	.
=24	=24	=24	=24	=24	=24	=24	=24
2.AA-/	.	2d-\	.	2g/	.	2b-\	.
.	.	4c\	.	4a-/	.	4a-/	.
=:|!|:	=:|!|:	=:|!|:	=:|!|:	=:|!|:	=:|!|:	=:|!|:	=:|!|:
*>C	*>C	*>C	*>C	*>C	*>C	*>C	*>C
4r	.	4r	.	4B-/	.	4r	.
=25	=25	=25	=25	=25	=25	=25	=25
4E-\	.	1r	.	2B-/	.	1r	.
4B-\	.	.	.	.	.	.	.
4G\	.	.	.	2e-/	<	.	.
4E-\	.	.	.	.	.	.	.
=26	=26	=26	=26	=26	=26	=26	=26
4BB-/	.	4B-/	.	2d/	.	1r	.
4r	.	4f\	.	.	.	.	.
2r	.	4d\	.	2a-/	.	.	.
.	.	4B-/	.	.	.	.	.
=27	=27	=27	=27	=27	=27	=27	=27
4E-\	.	4f\	.	2g/	.	1r	.
4B-\	.	4r	.	.	.	.	.
4G\	.	2r	.	2dd-\	>	.	.
4E-\	.	.	.	.	.	.	.
=28	=28	=28	=28	=28	=28	=28	=28
4A-\	.	4A-/	.	2cc\	.	1r	.
4r	.	4e-\	.	.	.	.	.
2r	.	4c\	.	[2a-/	.	.	.
.	.	4A-/	.	.	.	.	.
=29	=29	=29	=29	=29	=29	=29	=29
1E-	.	2E-/	.	4a-/]	.	2b-\	.
.	.	.	.	4g/	.	.	.
.	.	2g\	.	4f/	.	2ee-\	.
.	.	.	.	4e-/	.	.	.
=30	=30	=30	=30	=30	=30	=30	=30
1BB-	.	2f\	.	4A-/	.	2dd\	.
.	.	.	.	4d/	.	.	.
.	.	2d\	.	4f/	.	2aa-\	.
.	.	.	.	4a-/	.	.	.
=31	=31	=31	=31	=31	=31	=31	=31
2EE-/	<	2b-\	<	4g/	<	2gg\	<
.	.	.	.	2e-/	.	.	.
2E-\	.	2G/	.	.	.	[2ddd-\	.
.	.	.	.	[4e-/	.	.	.
=32	=32	=32	=32	=32	=32	=32	=32
2F\	.	2A-/	.	4e-/]	.	4ddd-\]	.
.	.	.	.	2e-/	.	4bb-\	.
2G\	.	2B-/	.	.	.	4gg\	.
.	.	.	.	[4e-/	.	4dd-\	.
=33	=33	=33	=33	=33	=33	=33	=33
1A-	p	1c	p	2e-/]	p	4cc\	p
.	.	.	.	.	.	4ee-\	.
.	.	.	.	[2a-/	.	4ee-\	.
.	.	.	.	.	.	4ee-\	.
=34	=34	=34	=34	=34	=34	=34	=34
1B-	.	1d-	.	4a-/]	.	[1ee-	.
.	.	.	.	4g/	.	.	.
.	.	.	.	4f/	.	.	.
.	.	.	.	4g/	.	.	.
=35	=35	=35	=35	=35	=35	=35	=35
2c\	.	2e-\	.	4a-/	.	2ee-\]	.
.	.	.	.	4b-\	.	.	.
2F\	.	2A-/	.	4cc\	.	[2aa-\	.
.	.	.	.	4dd\	.	.	.
=36	=36	=36	=36	=36	=36	=36	=36
2E-\	.	2B-/	.	2.ee-\	.	2aa-\]	.
[2e-\	.	2b-\	.	.	.	2gg\	.
.	.	.	.	4dd-\	.	.	.
=37	=37	=37	=37	=37	=37	=37	=37
2e-\]	.	4an\	.	4cc\	.	4ff\	.
.	.	4cc\	.	2ff\	.	4aan\	.
[2d-\	.	4b-\	.	.	.	[2bb-\	.
.	.	4f\	.	4b-\	.	.	.
=38	=38	=38	=38	=38	=38	=38	=38
2d-\]	.	4g\	.	4b-\	.	4bb-\]	.
.	.	4b-\	.	2ee-\	.	4gg\	.
4c\	.	4a-\	.	.	.	4aa-\	.
4C/	.	4c\	.	[4a-/	.	4een\	.
=39	=39	=39	=39	=39	=39	=39	=39
2D-\	.	4d-\	.	4a-/]	.	4ff\	.
.	.	4d-\	.	4f/	.	4b-\	.
2E-\	.	4B-/	.	4d-/	.	4dd-\	.
.	.	[4e-\	.	4d-/	.	4g/	.
=40	=40	=40	=40	=40	=40	=40	=40
2.AA-/	.	4e-\]	.	2d-/	.	2b-\	.
.	.	4G/	.	.	.	.	.
.	.	4A-/	.	4c/	.	4a-/	.
=41:|!	=41:|!	=41:|!	=41:|!	=41:|!	=41:|!	=41:|!	=41:|!
*>D	*>D	*>D	*>D	*>D	*>D	*>D	*>D
4AA-/	.	4A-/	.	4c/	.	4a-/	.
4GG#/	.	4F#/	<	4r	.	4r	.
4GG#/	.	4G/	.	2r	.	4r	.
4GG#/	.	4G/	.	.	.	8ee-\L	p
.	.	.	.	.	.	8ff\J	.
=42	=42	=42	=42	=42	=42	=42	=42
4CC/	p	4C/	p	4G/ 4e-/	p	8gg\L	.
.	.	.	.	.	.	8ee-\	.
4r	.	4r	.	4r	.	8ff\	.
.	.	.	.	.	.	8dd\J	.
4C/	.	4c\	.	4G/ 4e-/	.	8ee-\L	.
.	.	.	.	.	.	8cc\	.
4r	.	4r	.	4r	.	8dd\	.
.	.	.	.	.	.	8bn\J	.
=43	=43	=43	=43	=43	=43	=43	=43
4C/	.	4c\	.	4G/ 4e-/	.	8cc\L	.
.	.	.	.	.	.	8bn\	.
4r	.	4r	.	4r	.	8cc\	.
.	.	.	.	.	.	8dd\J	.
4r	.	4r	.	4r	.	8ee-\L	.
.	.	.	.	.	.	8een\	.
4C/	.	4G/ 4e-/	.	4cc\	.	8ff\	.
.	.	.	.	.	.	8ff#\J	.
=44	=44	=44	=44	=44	=44	=44	=44
4BBn/	.	4G\ 4f\	<	4dd\	<	4gg\	<
4C/	.	4G/ 4e-/	.	4cc\	.	4gg\	.
4GG/	.	4G/ 4d/	.	4bn\	.	4gg\	.
4C/	.	4G/ 4e-/	.	4cc\	.	4gg\	.
=45	=45	=45	=45	=45	=45	=45	=45
2.GG/	f	2.G/ 2.d/	f	2.bn\	f	2.gg\	f
4r	.	4r	.	4r	.	8ee-\L	p
.	.	.	.	.	.	8ff\J	.
=46	=46	=46	=46	=46	=46	=46	=46
4C/	p	4c\	p	4G/ 4e-/	p	8gg\L	.
.	.	.	.	.	.	8ee-\	.
4r	.	4r	.	4r	.	8ff\	.
.	.	.	.	.	.	8dd\J	.
4C/	.	4c\	.	4G/ 4e-/	.	8ee-\L	.
.	.	.	.	.	.	8cc\	.
4r	.	4r	.	4r	.	8dd\	.
.	.	.	.	.	.	8bn\J	.
=47	=47	=47	=47	=47	=47	=47	=47
4C/	.	4c\	.	4G/ 4e-/	.	8cc\L	.
.	.	.	.	.	.	8bn\	.
4r	.	4r	.	4r	.	8cc\	.
.	.	.	.	.	.	8dd\J	.
4r	.	4r	.	4r	.	8een\L	.
.	.	.	.	.	.	8ff#\	.
4C#/	.	4B-/	.	4G/ 4en/	.	8gg\	.
.	.	.	.	.	.	8aan\J	.
=48	=48	=48	=48	=48	=48	=48	=48
4D\	.	4B-/	.	4G/ 4d/	.	4bb-\	.
4E-\	<	4G/	<	4g/	<	4c#/	<
4D\	.	4G/	.	4B-/	.	4d/	.
4DD/	.	4F#/	.	4An/	.	4d/	.
=49	=49	=49	=49	=49	=49	=49	=49
2.GG/	.	2.G/	.	2.G/	.	2.G/	.
4r	.	4r	.	4r	.	8ee-\L	p
.	.	.	.	.	.	8ff\J	.
=50	=50	=50	=50	=50	=50	=50	=50
8CC/L	p	8C/L	p	8G/L 8e-/	p	8gg\L	.
8C/	.	8c/	.	8G/ 8e-/	.	8ee-\	.
8C/	.	8c/	.	8G/ 8e-/	.	8ff\	.
8C/J	.	8c/J	.	8G/J 8e-/	.	8dd\J	.
8C/L	<	8c\L	<	8G/L 8e-/	<	8ee-\L	<
8C/	.	8c\	<	8G/ 8e-/	.	8cc\	<
8C/	.	8c\	.	8G/ 8e-/	.	8dd\	.
8C/J	.	8c\J	.	8G/J 8e-/	.	8bn\J	.
=51	=51	=51	=51	=51	=51	=51	=51
8C/L	.	8c\L	.	8G/L 8e-/	.	8cc/L	.
8C/	.	8c\	.	8G/ 8e-/	.	8c/	.
8C/	.	8c\	.	8G/ 8e-/	.	8e-/	.
8C/J	.	8c\J	.	8G/J 8e-/	.	8g/J	.
8C/L	.	8c/L	.	8G/L 8e-/	.	8cc\L	.
8C/	.	8c/	.	8G/ 8e-/	.	8dd\	.
8C/	.	8G/ 8e-/	.	8cc/	.	8ee-\	.
8C/J	.	8G/J 8e-/	.	8cc/J	.	8ff\J	.
=52	=52	=52	=52	=52	=52	=52	=52
8BBn/L	f	8G\L 8f\	f	8dd\L	f	8gg\L	f
8BBn/	.	8G\ 8f\	.	8dd\	.	8ff#\	.
8C/	.	8G\ 8e-\	.	8cc\	.	8gg\	.
8C/J	.	8G\J 8e-\	.	8cc\J	.	8ff#\J	.
8GG/L	.	8G/L 8d/	.	8bn\L	.	8gg\L	.
8GG/	.	8G/ 8d/	.	8bn\	.	8ff#\	.
8C/	.	8G/ 8e-/	.	8cc\	.	8gg\	.
8C/J	.	8G/J 8e-/	.	8cc\J	.	8ff#\J	.
=53	=53	=53	=53	=53	=53	=53	=53
8GG/L	.	4G/ 4d/	.	4bn\	.	8gg\L	.
8GG/	.	.	.	.	.	8g\	.
8FF/	.	4r	.	4r	.	8an\	.
8FF/J	.	.	.	.	.	8bn\J	.
8EE-/L	.	2r	.	2r	.	8cc\L	.
8EE-/	.	.	.	.	.	8dd\	.
8DD/	.	.	.	.	.	8ee-\	.
8DD/J	.	.	.	.	.	8ff\J	.
=54	=54	=54	=54	=54	=54	=54	=54
8CC/L	p	8C/L	p	8G/L 8e-/	p	8gg\L	p
8C/	.	8c/	.	8G/ 8e-/	.	8ee-\	.
8C/	.	8c/	.	8G/ 8e-/	.	8ff\	.
8C/J	.	8c/J	.	8G/J 8e-/	.	8dd\J	.
8C/L	<	8c\L	<	8G/L 8e-/	<	8ee-\L	<
8C/	<	8c\	<	8G/ 8e-/	.	8cc\	<
8C/	.	8c\	.	8G/ 8e-/	.	8dd\	.
8C/J	.	8c\J	.	8G/J 8e-/	.	8bn\J	.
=55	=55	=55	=55	=55	=55	=55	=55
8C/L	.	8c\L	.	8G/L 8e-/	.	8cc\L	.
8C/	.	8c\	.	8G/ 8e-/	.	8bn\	.
8C/	.	8c\	.	8G/ 8e-/	.	8cc\	.
8C/J	.	8c\J	.	8G/J 8e-/	.	8dd\J	.
8C#/L	.	8B-/L	.	8G/L 8en/	.	8een\L	.
8C#/	.	8B-/	.	8G/ 8en/	.	8ff#\	.
8C#/	.	8B-/	.	8G/ 8en/	.	8gg\	.
8C#/J	.	8B-/J	.	8G/J 8en/	.	8aan\J	.
=56	=56	=56	=56	=56	=56	=56	=56
8D\L	f	8B-\L	f	8G/L 8d/	f	8bb-\L	f
8D\	.	8g\	.	8b-/	.	8gg\	.
8E-\	.	8e-\	.	8g/	.	8bb-\	.
8E-\J	.	8e-\J	.	8b-/J	.	8gg\J	.
8C#/L	.	8en\L	.	8g/L	.	8aan\L	.
8C#/	.	8en\	.	8an/	.	8gg\	.
8D/	.	8c\	.	8f#/	.	8aan\	.
8D/J	.	8c\J	.	8an/J	.	8ff#\J	.
=57	=57	=57	=57	=57	=57	=57	=57
8GG/L	.	4B-/	.	4g/	.	4gg\	.
8GG/	.	.	.	.	.	.	.
8AA-/	.	4r	.	4r	.	4r	.
8AA-/J	.	.	.	.	.	.	.
8GG/L	.	2r	.	2r	.	4r	.
8GG/	.	.	.	.	.	.	.
8FF/	.	.	.	.	.	8gg\L	p
8FF/J	.	.	.	.	.	8aa-\J	.
=58	=58	=58	=58	=58	=58	=58	=58
4EEn/	p	4g\	p	4r	.	4bb-\	.
4CC/	.	4r	.	4b-\	p	4een\	.
4FF/	.	4c\	.	4a-/	.	4ff\	.
4r	.	4r	.	4f/	.	[4aa-\	.
=59	=59	=59	=59	=59	=59	=59	=59
4BB-/	.	4f\	.	4d/	.	4aa-\]	.
4r	.	4r	.	4a-/	.	4dd\	.
4E-\	.	4B-/	.	4g/	.	4ee-\	.
4r	.	4r	.	4e-/	.	[4gg\	.
=60	=60	=60	=60	=60	=60	=60	=60
4AA-/	.	4f\	.	4c/	.	4gg\]	.
4r	.	4r	.	8d/L	.	8ff\L	.
.	.	.	.	8e-/J	.	8ee-\J	.
4A-\	.	4c\	.	4f/	.	4dd\	.
4r	.	4r	.	4f#/	.	4cc\	.
=61	=61	=61	=61	=61	=61	=61	=61
2.G\	.	4d\	.	2.g/	.	4bn\	.
.	.	2Bn/	.	.	.	2dd\	.
4r	.	4r	.	4r	.	8ee-\L	p
.	.	.	.	.	.	8ff\J	.
=62	=62	=62	=62	=62	=62	=62	=62
4C/	p	4c\	p	4G/ 4e-/	p	8gg\L	.
.	.	.	.	.	.	8ee-\	.
4r	.	4r	.	4r	.	8ff\	.
.	.	.	.	.	.	8dd\J	.
4C/	.	4c\	.	4G/ 4e-/	.	8ee-\L	.
.	.	.	.	.	.	8cc\	.
4r	.	4r	.	4r	.	8dd\	.
.	.	.	.	.	.	8bn\J	.
=63	=63	=63	=63	=63	=63	=63	=63
4C/	<	4c\	<	4G/ 4e-/	<	8cc\L	<
.	.	.	.	.	.	8bn\	<
4BB-/	<	4c\	<	4en/	<	8cc\	.
.	.	.	.	.	.	8dd\J	.
4AA-/	.	4c\	.	4f/	.	8ee-\L	.
.	.	.	.	.	.	8een\	.
4GG/	.	4en\	.	4c/ 4g/	.	8ff\	.
.	.	.	.	.	.	8gg\J	.
=64	=64	=64	=64	=64	=64	=64	=64
4FF/	.	4f\	.	4a-/	.	4aa-\	.
4AA-/	f	4c\	f	4cc\	f	4f#/	f
4GG/	.	4c\	.	4e-/	.	4g/	.
4GG/	.	4Bn/	.	4d/	.	4g/	.
=65	=65	=65	=65	=65	=65	=65	=65
2.C/	.	2.C/ 2.c/	.	2.c/	.	2.cc\	.
4r	.	4r	.	4r	.	8gg\L	.
.	.	.	.	.	.	8aa-\J	.
=66	=66	=66	=66	=66	=66	=66	=66
8C/L	.	8c\L	.	8g/L 8b-/	.	8bb-\L	.
8C/	.	8c\	.	8g/ 8b-/	.	8gg\	.
8C/	.	8c\	.	8g/ 8b-/	.	8ff\	.
8C/J	.	8c\J	.	8g/J 8b-/	.	8een\J	.
4F\	.	4c\	.	4a-/	.	8ff\L	.
.	.	.	.	.	.	8een\	.
4r	.	4r	.	4r	.	8ff\	.
.	.	.	.	.	.	8gg\J	.
=67	=67	=67	=67	=67	=67	=67	=67
8BB-/L	.	8f\L	.	8B-/L 8a-/	.	8aa-\L	.
8BB-/	.	8f\	.	8B-/ 8a-/	.	8ff\	.
8BB-/	.	8f\	.	8B-/ 8a-/	.	8ee-\	.
8BB-/J	.	8f\J	.	8B-/J 8a-/	.	8dd\J	.
4E-\	.	4e-\	.	4B-/ 4g/	.	8ee-\L	.
.	.	.	.	.	.	8dd\	.
4r	.	4r	.	4r	.	8ee-\	.
.	.	.	.	.	.	8gg\J	.
=68	=68	=68	=68	=68	=68	=68	=68
8AA-/L	ff	8c\L	ff	8e-/L	ff	8ff\L	ff
8AA-/	.	8c\	.	8e-/	.	8gg\	.
8AA-/	.	8c\	.	8e-/	.	8ee-\	.
8AA-/J	.	8c\J	.	8e-/J	.	8ff\J	.
8AA-/L	.	8c\L	.	8f#/L	.	8dd\L	.
8AA-/	.	8c\	.	8f#/	.	8ee-\	.
8AA-/	.	8c\	.	8f#/	.	8cc\	.
8AA-/J	.	8c\J	.	8f#/J	.	8dd\J	.
=69	=69	=69	=69	=69	=69	=69	=69
8GG/L	.	4d\	.	4Bn/ 4g/	.	8bn/L	.
8GG/	.	.	.	.	.	8g/	.
8FF/	.	4r	.	4r	.	8an/	.
8FF/J	.	.	.	.	.	8bn/J	.
8EE-/L	.	2r	.	2r	.	8cc\L	.
8EE-/	.	.	.	.	.	8dd\	.
8DD/	.	.	.	.	.	8ee-\	.
8DD/J	.	.	.	.	.	8ff\J	.
=70	=70	=70	=70	=70	=70	=70	=70
8CC/L	p	8C/L	p	8G/L 8e-/	p	8gg\L	p
8C/	.	8c/	.	8G/ 8e-/	.	8ee-\	.
8C/	.	8c/	.	8G/ 8e-/	.	8ff\	.
8C/J	.	8c/J	.	8G/J 8e-/	.	8dd\J	.
8C/L	<	8c\L	<	8G/L 8e-/	<	8ee-\L	<
8C/	<	8c\	<	8G/ 8e-/	.	8cc\	<
8C/	.	8c\	.	8G/ 8e-/	.	8dd\	.
8C/J	.	8c\J	.	8G/J 8e-/	.	8bn\J	.
=71	=71	=71	=71	=71	=71	=71	=71
8C/L	.	8c\L	.	8G/L 8e-/	.	8cc\L	.
8C/	.	8c\	.	8G/ 8e-/	.	8bn\	.
8BB-/	.	8c\	.	8en/	.	8cc\	.
8BB-/J	.	8c\J	.	8en/J	.	8dd\J	.
8AA-/L	.	8c\L	.	8f/L	.	8ee-\L	.
8AA-/	.	8c\	.	8f/	.	8een\	.
8GG/	.	8en\	.	8c/ 8g/	.	8ff\	.
8GG/J	.	8en\J	.	8c/J 8g/	.	8gg\J	.
=72	=72	=72	=72	=72	=72	=72	=72
8FF/L	f	8f\L	f	8c/L 8a-/	f	8aa-\L	f
8FF/	.	8f\	.	8c/ 8a-/	.	8ff\	.
8FF/	.	8d\	.	8c/ 8a-/	.	8aa-\	.
8FF/J	.	8d\J	.	8c/J 8a-/	.	8ff\J	.
8GG/L	.	8e-\L	.	8c/L 8g/	.	8ee-\L	.
8GG/	.	8e-\	.	8c/ 8g/	.	8gg\	.
8GG/	.	8f\	.	8Bn/ 8g/	.	8bn\	.
8GG/J	.	8f\J	.	8Bn/J 8g/	.	8dd\J	.
=73	=73	=73	=73	=73	=73	=73	=73
4CC/	.	4e-\	.	4c/ 4g/	.	4cc\	.
4r	.	4r	.	4r	.	4r	.
4r	.	4r	.	4r	.	4r	.
8r	.	8r	.	8r	.	8r	.
=!|:	=!|:	=!|:	=!|:	=!|:	=!|:	=!|:	=!|:
*>E	*>E	*>E	*>E	*>E	*>E	*>E	*>E
*k[]	*k[]	*k[]	*k[]	*k[]	*k[]	*k[]	*k[]
24GG/LL	f	8r	.	8r	.	8r	.
24AA/	.	.	.	.	.	.	.
24BB/JJ	.	.	.	.	.	.	.
=74	=74	=74	=74	=74	=74	=74	=74
[1C	p	4r	.	2r	.	1r	.
.	.	8r	.	.	.	.	.
.	.	24G/LL	f	.	.	.	.
.	.	24A/	.	.	.	.	.
.	.	24B/JJ	.	.	.	.	.
.	.	[2c\	p	4r	.	.	.
.	.	.	.	8r	.	.	.
.	.	.	.	24g/LL	f	.	.
.	.	.	.	24a/	.	.	.
.	.	.	.	24b/JJ	.	.	.
=75	=75	=75	=75	=75	=75	=75	=75
1C_	.	2c\]	.	[1cc	p	4r	.
.	.	.	.	.	.	8r	.
.	.	.	.	.	.	32cc\LLL	f
.	.	.	.	.	.	32dd\	.
.	.	.	.	.	.	32ee\	.
.	.	.	.	.	.	32ff\JJJ	p
.	.	2E/	.	.	.	2gg\	.
=76	=76	=76	=76	=76	=76	=76	=76
1C_	.	4F/	.	2.cc\]	.	8aa\L	.
.	.	.	.	.	.	8ff#\	.
.	.	4E/	.	.	.	8gg\	.
.	.	.	.	.	.	8gg\J	.
.	.	4A/	.	.	.	8ff\L	.
.	.	.	.	.	.	8dd#\	.
.	.	4G/	.	4b\	.	8ee\	.
.	.	.	.	.	.	8ee\J	.
=77	=77	=77	=77	=77	=77	=77	=77
4C/]	.	4f\	.	4a/	.	8dd\L	.
.	.	.	.	.	.	8b\	.
4C/	.	4e\	.	4g/	.	8cc\	.
.	.	.	.	.	.	8cc\J	.
4C/	.	4d\	.	4f/	.	8b/L	.
.	.	.	.	.	.	8g#/	.
4C/	.	4c\	.	4e/	.	8a/	.
.	.	.	.	.	.	8g#/J	.
=78	=78	=78	=78	=78	=78	=78	=78
4D\	.	4B/	.	4d/	.	8dd/L	.
.	.	.	.	.	.	8b/	.
4r	.	4r	.	4r	.	8g/	.
.	.	.	.	.	.	8g/J	.
4D\	.	4A/	.	4c/	.	8cc/L	.
.	.	.	.	.	.	8a/	.
4r	.	4r	.	4r	.	8f#/	.
.	.	.	.	.	.	8f#/J	.
=79	=79	=79	=79	=79	=79	=79	=79
4GG/	.	4G/	.	4B/	.	8g/L	.
.	.	.	.	.	.	8d/	.
4r	.	4r	.	4r	.	8B/	.
.	.	.	.	.	.	8d/J	.
4r	.	4r	.	4r	.	4G/	.
8r	.	8r	.	8r	.	8r	.
=:|!|:	=:|!|:	=:|!|:	=:|!|:	=:|!|:	=:|!|:	=:|!|:	=:|!|:
*>F	*>F	*>F	*>F	*>F	*>F	*>F	*>F
24D\LL	.	8r	.	8r	.	8r	.
24E\	.	.	.	.	.	.	.
24F#\JJ	.	.	.	.	.	.	.
=80	=80	=80	=80	=80	=80	=80	=80
[1G	.	4r	.	2r	.	1r	.
.	.	8r	.	.	.	.	.
.	.	24d\LL	.	.	.	.	.
.	.	24e\	.	.	.	.	.
.	.	24f#\JJ	.	.	.	.	.
.	.	2g\	.	4r	.	.	.
.	.	.	.	8r	.	.	.
.	.	.	.	24dd\LL	.	.	.
.	.	.	.	24ee\	.	.	.
.	.	.	.	24ff#\JJ	.	.	.
=81	=81	=81	=81	=81	=81	=81	=81
2G\_	.	4d\	.	1gg	.	8b/L	.
.	.	.	.	.	.	8g/	.
.	.	4e\	.	.	.	8cc/	.
.	.	.	.	.	.	8g/J	.
4.G\]	.	4B/	.	.	.	8dd/L	.
.	.	.	.	.	.	8b/	.
.	.	4r	.	.	.	8g/	.
24D\LL	.	.	.	.	.	8g/J	.
24E\	.	.	.	.	.	.	.
24F#\JJ	.	.	.	.	.	.	.
=82	=82	=82	=82	=82	=82	=82	=82
[1G	.	4r	.	2r	.	1r	.
.	.	8r	.	.	.	.	.
.	.	24d\LL	.	.	.	.	.
.	.	24e\	.	.	.	.	.
.	.	24f#\JJ	.	.	.	.	.
.	.	2g\	.	4r	.	.	.
.	.	.	.	8r	.	.	.
.	.	.	.	24dd\LL	.	.	.
.	.	.	.	24ee\	.	.	.
.	.	.	.	24ff#\JJ	.	.	.
=83	=83	=83	=83	=83	=83	=83	=83
1G_	.	4B/	.	2.gg\	.	8dd\L	f
.	.	.	.	.	.	8g\	p
.	.	4c\	.	.	.	8ee\	.
.	.	.	.	.	.	8g\J	.
.	.	4d\	.	.	.	8ff\L	.
.	.	.	.	.	.	8g\	.
.	.	4e\	.	4g/	.	8gg\	.
.	.	.	.	.	.	8f\J	.
=84	=84	=84	=84	=84	=84	=84	=84
1G_	.	4f\	.	4a/	.	8aa\L	.
.	.	.	.	.	.	8ff#\	.
.	.	4e\	.	4g/	.	8gg\	.
.	.	.	.	.	.	8gg\J	.
.	.	4a\	.	4cc\	.	8ff\L	.
.	.	.	.	.	.	8dd#\	.
.	.	4g\	.	4b\	.	8ee\	.
.	.	.	.	.	.	8ee\J	.
=85	=85	=85	=85	=85	=85	=85	=85
2.G\]	.	4f\	.	4a/	.	8dd\L	.
.	.	.	.	.	.	8b\	.
.	.	4e\	.	4g/	.	8cc\	.
.	.	.	.	.	.	8cc\J	.
.	.	4d\	.	4f/	.	8b/L	.
.	.	.	.	.	.	8g#/	.
4F#\	.	[4c\	.	4e-/	.	8a/	.
.	.	.	.	.	.	8a/J	.
=86	=86	=86	=86	=86	=86	=86	=86
4G\	.	4c\]	.	4e/	.	8g/L	.
.	.	.	.	.	.	8e/	.
4r	.	4r	.	4r	.	8c/	.
.	.	.	.	.	.	8c/J	.
4GG/	.	4G/ 4d/	.	4b\	.	8f/L	.
.	.	.	.	.	.	8d/	.
4r	.	4r	.	4r	.	8B/	.
.	.	.	.	.	.	8B/J	.
=87	=87	=87	=87	=87	=87	=87	=87
*>F1	*>F1	*>F1	*>F1	*>F1	*>F1	*>F1	*>F1
4C/	.	4G/ 4e/	.	4cc\	.	8c/L	.
.	.	.	.	.	.	8G/	.
4r	.	4r	.	4r	.	8c/	.
.	.	.	.	.	.	8G/J	.
4r	.	4r	.	4r	.	4c/	.
8r	.	8r	.	8r	.	8r	.
=88:|!	=88:|!	=88:|!	=88:|!	=88:|!	=88:|!	=88:|!	=88:|!
*>F2	*>F2	*>F2	*>F2	*>F2	*>F2	*>F2	*>F2
4C/	.	4G/ 4e/	.	4cc\	.	8c/L	.
.	.	.	.	.	.	8G/	.
4r	.	4r	.	4r	.	8c/	.
.	.	.	.	.	.	8G/J	.
2r	.	2r	.	4r	.	4c/	.
.	.	.	.	8e-/L	p	4r	.
.	.	.	.	8f/J	.	.	.
=89!|:	=89!|:	=89!|:	=89!|:	=89!|:	=89!|:	=89!|:	=89!|:
*>G	*>G	*>G	*>G	*>G	*>G	*>G	*>G
*k[b-e-a-]	*k[b-e-a-]	*k[b-e-a-]	*k[b-e-a-]	*k[b-e-a-]	*k[b-e-a-]	*k[b-e-a-]	*k[b-e-a-]
4C/	p	2r	.	8g/L	.	2r	.
.	.	.	.	8e-/	.	.	.
4r	.	.	.	8f/	.	.	.
.	.	.	.	8d/J	.	.	.
4C/	.	8g\L	p	8e-/L	.	8gg\L	p
.	.	8e-\	.	8c/	.	8ee-\	.
4r	.	8f\	.	8d/	.	8ff\	.
.	.	8d\J	.	8Bn/J	.	8dd\J	.
=90	=90	=90	=90	=90	=90	=90	=90
4C/	.	4c\	.	4c/	.	8cc\L	.
.	.	.	.	.	.	8bn\	.
4r	.	4r	.	4r	.	8cc\	.
.	.	.	.	.	.	8dd\J	.
4r	.	4r	.	2r	.	8ee-\L	.
.	.	.	.	.	.	8een\	.
4C/	.	4G/ 4e-/	.	.	.	8ff\	.
.	.	.	.	.	.	8ff#\J	.
=91	=91	=91	=91	=91	=91	=91	=91
4BBn/	<	4G/ 4d/	<	1r	.	4gg\	<
4C/	<	4e-\	<	.	.	4gg\	<
4BB-/	.	4d\	.	.	.	4gg\	.
4AA-/	.	4c\	.	.	.	4gg\	.
=92	=92	=92	=92	=92	=92	=92	=92
4GG/	f	4Bn/	f	4g/	f	2.gg\	.
4r	.	4r	.	4g/	.	.	.
2r	.	2r	.	4g/	.	.	.
.	.	.	.	8e-/L	p	4r	.
.	.	.	.	8f/J	.	.	.
=93	=93	=93	=93	=93	=93	=93	=93
4C/	p	2r	.	8g/L	.	2r	.
.	.	.	.	8e-/	.	.	.
4r	.	.	.	8f/	.	.	.
.	.	.	.	8d/J	.	.	.
4C/	.	8g\L	p	8e-/L	.	8gg\L	p
.	.	8e-\	.	8c/	.	8ee-\	.
4r	.	8f\	.	8d/	.	8ff\	.
.	.	8d\J	.	8Bn/J	.	8dd\J	.
=94	=94	=94	=94	=94	=94	=94	=94
4C/	.	4e-\	.	4c/	.	8cc\L	.
.	.	.	.	.	.	8bn\	<
4r	.	4r	.	4r	.	8cc\	<
.	.	.	.	.	.	8dd\J	.
4r	.	2r	.	4r	.	8een\L	.
.	.	.	.	.	.	8ff#\	.
4C#/	f	.	.	8en/L	f	8gg\	.
.	.	.	.	8f#/J	.	8aan\J	.
=95	=95	=95	=95	=95	=95	=95	=95
4D\	.	4r	.	4g/	.	4bb-\	.
4E-\	.	8B-/L	f	8gg\L	.	4c#/	.
.	.	8An/J	.	8aan\J	.	.	.
4D\	.	4G/	.	4bb-\	.	4d/	.
4DD/	.	4An/	.	4f#/	.	4d/	.
=96	=96	=96	=96	=96	=96	=96	=96
*>G1	*>G1	*>G1	*>G1	*>G1	*>G1	*>G1	*>G1
4GG/	ff	4G/	.	4g/	.	4G/	.
4GG/	.	4r	.	4r	.	4r	.
4GG/	.	2r	.	4r	.	2r	.
4GG/	p	.	.	8e-/L	p	.	.
.	.	.	.	8f/J	.	.	.
=97:|!	=97:|!	=97:|!	=97:|!	=97:|!	=97:|!	=97:|!	=97:|!
*>G2	*>G2	*>G2	*>G2	*>G2	*>G2	*>G2	*>G2
4GG/	ff	4G/	.	4g/	.	4G/	.
4GG/	.	4r	.	4r	.	4r	.
4GG/	.	4r	.	4r	.	2r	.
4GG/	p	8En/L	p	8g/L	p	.	.
.	.	8F/J	.	8a-/J	.	.	.
=98	=98	=98	=98	=98	=98	=98	=98
4CC/	.	4G/	.	4b-\	.	4r	.
4r	.	4G/	.	4en/	.	4bb-\	p
4F\	.	4A-/	.	4f/	.	4aa-\	.
4r	.	4c\	.	[4a-/	.	4ff\	.
=99	=99	=99	=99	=99	=99	=99	=99
4BB-/	.	4F/	.	4a-/]	.	4r	.
4r	.	4F/	.	4d/	.	4aa-\	.
4E-\	.	4G/	.	4e-/	.	4gg\	.
4r	.	[4B-/	.	[4g/	.	4ee-\	.
=100	=100	=100	=100	=100	=100	=100	=100
4AA-/	.	4B-/]	.	4g/]	.	4cc\	.
4r	.	8A-/L	.	8f/L	.	8dd\L	.
.	.	8G/J	.	8e-/J	.	8ee-\J	.
4AA-/	.	8F/L	.	4d/	.	4ff\	.
.	.	8E-/	.	.	.	.	.
4r	.	8D/	.	4c/	.	4ff#\	.
.	.	8C/J	.	.	.	.	.
=101	=101	=101	=101	=101	=101	=101	=101
2.GG/	.	4D/	.	4Bn/	.	2.gg\	.
.	.	2Bn/	.	2d/	.	.	.
4r	.	4r	.	8e-/L	p	4r	.
.	.	.	.	8f/J	.	.	.
=102	=102	=102	=102	=102	=102	=102	=102
4C/	p	2r	.	8g/L	.	2r	.
.	.	.	.	8e-/	.	.	.
4r	.	.	.	8f/	.	.	.
.	.	.	.	8d/J	.	.	.
4C/	.	8g\L	p	8e-/L	.	8gg\L	p
.	.	8e-\	.	8c/	.	8ee-\	.
4r	.	8f\	.	8d/	.	8ff\	.
.	.	8d\J	.	8Bn/J	.	8dd\J	.
=103	=103	=103	=103	=103	=103	=103	=103
4C/	<	4c\	<	4c/	.	8cc\L	.
.	.	.	.	.	.	8bn\	<
4BB-/	<	4d-\	.	4r	<	8cc\	<
.	.	.	.	.	.	8dd\J	.
4AA-/	.	4c\	.	4r	.	8ee-\L	.
.	.	.	.	.	.	8een\	.
4GG/	.	4B-/	.	8d/L	.	8ff\	.
.	.	.	.	8en/J	.	8gg\J	.
=104	=104	=104	=104	=104	=104	=104	=104
4FF/	.	4A-/	.	4f/	.	4aa-\	.
4A-\	f	8e-\L	f	8cc\L	f	4f#/	f
.	.	8d\J	.	8dd\J	.	.	.
4G\	.	4c\	.	4ee-\	.	4g/	.
4GG/	.	4d\	.	4bn\	.	4g/	.
=105	=105	=105	=105	=105	=105	=105	=105
4C/	ff	4c\	.	4cc\	.	4c/	.
4CC/	.	4r	.	4r	.	4r	.
4CC/	.	4r	.	4r	.	4r	.
4CC/	p	8G/L	p	8en/L	p	8gg\L	p
.	.	8F/J	.	8f/J	.	8aa-\J	.
=106	=106	=106	=106	=106	=106	=106	=106
4CC/	.	4En/	.	4g/	.	4bb-\	.
4C/	.	4B-/	.	4g/	.	4een\	.
4FF/	.	4A-/	.	4a-/	.	4ff\	.
4r	.	4F/	.	4cc\	.	[4aa-\	.
=107	=107	=107	=107	=107	=107	=107	=107
4BB-/	.	4D/	.	4r	.	4aa-\]	.
4r	.	4A-/	.	4f/	.	4dd\	.
4EE-/	.	4G/	.	4g/	.	4ee-\	.
4r	.	4E-/	.	4b-\	.	[4gg\	.
=108	=108	=108	=108	=108	=108	=108	=108
4AA-/	.	4C/	.	4cc\	.	4gg\]	.
4r	.	8D/L	.	2c/	.	8ff\L	.
.	.	8E-/J	.	.	.	8ee-\J	.
4AA-/	.	4F/	.	.	.	4dd\	.
4r	.	4F#/	.	4d/	.	4cc\	.
=109	=109	=109	=109	=109	=109	=109	=109
4GG/	<	4G/	<	8d/L	<	4bn\	<
.	.	.	.	8Bn/	<	.	.
4GG/	.	8An/L	<	8c/	.	2dd\	<
.	.	8Bn/J	.	8d/J	.	.	.
4GG/	.	8c\L	.	8e-/L	.	.	.
.	.	8Bn\	.	8d/	.	.	.
4GG/	.	8c\	.	8e-/	.	8ee-\L	.
.	.	8d\J	.	8f/J	.	8ff\J	.
=110	=110	=110	=110	=110	=110	=110	=110
4CC/	f	8e-\L	f	8g/L	f	8gg\L	f
.	.	8c\	.	8e-/	.	8ee-\	.
4r	.	8d\	.	8f/	.	8ff\	.
.	.	8Bn\J	.	8d/J	.	8dd\J	.
4C/	.	8G/L	.	8e-/L	.	8ee-\L	.
.	.	8E-/	.	8c/	.	8cc\	.
4r	.	8F/	.	8d/	.	8dd\	.
.	.	8D/J	.	8Bn/J	.	8bn\J	.
=111	=111	=111	=111	=111	=111	=111	=111
4C/	.	8C/L	.	8c/L	.	8cc\L	.
.	.	8c/	.	8cc/	.	8bn\	.
4BB-/	.	8c/	.	8cc/	.	8cc\	.
.	.	8c/J	.	8cc/J	.	8dd\J	.
4AA-/	.	8c\L	.	8cc\L	.	8ee-\L	.
.	.	8c\	.	8cc\	.	8een\	.
4GG/	.	8c\	.	8cc\	.	8ff\	.
.	.	8c\J	.	8cc\J	.	8gg\J	.
=112	=112	=112	=112	=112	=112	=112	=112
4FF/	.	8c\L	.	8cc\L	.	4aa-\	.
.	.	8c\	.	8cc\	.	.	.
4AA-/	.	8c\	.	8cc\	.	4f#/	.
.	.	8c\J	.	8dd\J	.	.	.
4GG/	.	4c\	.	4ee-\	.	4g/	.
4GG/	.	4d\	.	4Bn/	.	4g/	.
=113	=113	=113	=113	=113	=113	=113	=113
4C/	.	4c\	.	4c/	.	4c/	.
4r	.	4r	.	4r	.	4r	.
2r	.	4r	.	2r	.	8G/L	<
.	.	.	.	.	.	8e-/	<
.	.	8E-/L	.	.	.	8cc/	.
.	.	8F/J	.	.	.	8e-/J	.
=114	=114	=114	=114	=114	=114	=114	=114
2r	.	[1G	.	2r	.	8G/L	.
.	.	.	.	.	.	8d/	.
.	.	.	.	.	.	8bn/	.
.	.	.	.	.	.	8d/J	.
4r	.	.	.	4r	.	8G/L	.
.	.	.	.	.	.	8f/	.
8AAn/L	.	.	.	8An/L	.	8dd/	.
8BBn/J	.	.	.	8Bn/J	.	8f/J	.
=115	=115	=115	=115	=115	=115	=115	=115
2.C/	.	2.G/]	.	2.c/	.	8G/L	.
.	.	.	.	.	.	8e-/	.
.	.	.	.	.	.	8cc/	.
.	.	.	.	.	.	8e-/J	.
.	.	.	.	.	.	8c/L	.
.	.	.	.	.	.	8g/	.
8E-\L	.	8e-\L	.	4r	.	8ee-/	.
8F\J	.	8f\J	.	.	.	8g/J	.
=116	=116	=116	=116	=116	=116	=116	=116
2.G\	.	2.g\	.	1r	.	8Bn/L	.
.	.	.	.	.	.	8g/	.
.	.	.	.	.	.	8dd/	.
.	.	.	.	.	.	8g/J	.
.	.	.	.	.	.	8c/L	.
.	.	.	.	.	.	8g/	.
8E-\L	.	8e-\L	.	.	.	8ee-/	.
8C\J	.	8c\J	.	.	.	8g/J	.
=117	=117	=117	=117	=117	=117	=117	=117
2.GG/	.	2.G/	.	4r	.	12G/L	.
.	.	.	.	.	.	12d/	.
.	.	.	.	.	.	12bn/	.
.	.	.	.	8Bn/L	.	12ff/	.
.	.	.	.	.	.	12bn/	.
.	.	.	.	8d/J	.	.	.
.	.	.	.	.	.	12d/J	.
.	.	.	.	[2f/	.	12G/L	.
.	.	.	.	.	.	12d/	.
.	.	.	.	.	.	12bn/	.
8D/L	.	8d\L	.	.	.	12ff/	.
.	.	.	.	.	.	12bn/	.
8BBn/J	.	8Bn\J	.	.	.	.	.
.	.	.	.	.	.	12d/J	.
=118	=118	=118	=118	=118	=118	=118	=118
4GG/	.	4G/	.	4f/]	.	12G/L	.
.	.	.	.	.	.	12d/	.
.	.	.	.	.	.	12bn/	.
8D/L	.	8d\L	.	8Bn/L	.	12ff/	.
.	.	.	.	.	.	12bn/	.
8BBn/J	.	8Bn\J	.	8d/J	.	.	.
.	.	.	.	.	.	12d/J	.
4GG/	.	4G/	.	4f/	.	12G/L	.
.	.	.	.	.	.	12d/	.
.	.	.	.	.	.	12bn/	.
8D/L	.	8d\L	.	8f/L	.	12ff/	.
.	.	.	.	.	.	12bn/	.
8BBn/J	.	8Bn\J	.	8bn/J	.	.	.
.	.	.	.	.	.	12d/J	.
=119	=119	=119	=119	=119	=119	=119	=119
2.GG/	ff	2.G/	ff	2.dd\	ff	2.G/ 2.d/ 2.bn/ 2.ff/	ff
4r	.	4r	.	4g/	p	4r	.
=120	=120	=120	=120	=120	=120	=120	=120
1c	p	1en	p	2g/	.	[1gg	p
.	.	.	.	2cc\	.	.	.
=121	=121	=121	=121	=121	=121	=121	=121
1d	.	1f	.	4cc\	.	1gg_	.
.	.	.	.	4bn\	.	.	.
.	.	.	.	4an/	.	.	.
.	.	.	.	4bn\	.	.	.
=122	=122	=122	=122	=122	=122	=122	=122
2en\	.	2g\	.	4cc\	.	2gg\]	.
.	.	.	.	4dd\	.	.	.
2An\	.	2c\	.	4een\	.	[2ccc\	.
.	.	.	.	4ff#\	.	.	.
=123	=123	=123	=123	=123	=123	=123	=123
1G	.	1d	.	[1gg	.	2ccc\]	.
.	.	.	.	.	.	2bbn\	.
=124	=124	=124	=124	=124	=124	=124	=124
2c#\	.	2en\	.	2gg\]	.	1aan	.
2d\	.	2f\	.	[2ff\	.	.	.
=125	=125	=125	=125	=125	=125	=125	=125
2Bn\	.	2d\	.	2ff\]	.	[1gg	.
2c\	.	2en\	.	[2een\	.	.	.
=126	=126	=126	=126	=126	=126	=126	=126
2F\	.	4An/	.	4ee\]	.	4gg\]	.
.	.	4an\	.	4dd\	.	4ff\	.
2G\	.	4g\	.	4cc\	.	4een\	.
.	.	4f\	.	4bn\	.	4dd\	.
=127	=127	=127	=127	=127	=127	=127	=127
4C/	.	4en\	.	8cc\L	.	8een\L	.
.	.	.	.	8bn\	.	8dd\	.
4r	.	4r	.	8cc\	.	8een\	.
.	.	.	.	8dd\J	.	8ff\J	.
2r	.	2r	.	4een\	.	4gg\	.
.	.	.	.	4r	.	4gg\	.
=128	=128	=128	=128	=128	=128	=128	=128
4C/	.	2g\	.	8G/L	.	2gg\	.
.	.	.	.	8en/	.	.	.
4r	.	.	.	8c/	.	.	.
.	.	.	.	8en/J	.	.	.
2r	.	[2cc\	.	8g/L	.	[2ccc\	.
.	.	.	.	8en/	.	.	.
.	.	.	.	8c/	.	.	.
.	.	.	.	8en/J	.	.	.
=129	=129	=129	=129	=129	=129	=129	=129
4GG/	.	4cc\]	.	8G/L	.	4ccc\]	.
.	.	.	.	8f/	.	.	.
4r	.	4bn\	.	8d/	.	4bbn\	.
.	.	.	.	8f/J	.	.	.
2r	.	4an\	.	8g/L	.	4aan\	.
.	.	.	.	8f/	.	.	.
.	.	4bn\	.	8d/	.	4bbn\	.
.	.	.	.	8f/J	.	.	.
=130	=130	=130	=130	=130	=130	=130	=130
4C/	.	4cc\	.	8en/L	.	4ccc\	.
.	.	.	.	8g/	.	.	.
4r	.	8c/L	.	8en/	.	4ddd\	.
.	.	8Bn/J	.	8d/J	.	.	.
4BBn/	.	4G/	.	8c/L	.	4eeen\	.
.	.	.	.	8f#/	.	.	.
4r	.	4c\	.	8an/	.	4fff#\	.
.	.	.	.	8cc/J	.	.	.
=131	=131	=131	=131	=131	=131	=131	=131
4GG/	.	4Bn/	.	8d/L	.	[1ggg	.
.	.	.	.	8g/	.	.	.
4r	.	4r	.	8bn/	.	.	.
.	.	.	.	8dd/J	.	.	.
2r	.	2r	.	8gg\L	.	.	.
.	.	.	.	8ff\	.	.	.
.	.	.	.	8een\	.	.	.
.	.	.	.	8dd\J	.	.	.
=132	=132	=132	=132	=132	=132	=132	=132
4AAn/	.	4r	.	8cc#\L	.	2ggg\]	.
.	.	.	.	8een\	.	.	.
4r	.	4en\	.	8cc#\	.	.	.
.	.	.	.	8an\J	.	.	.
4D\	.	4An/	.	8dd\L	.	[2fff\	.
.	.	.	.	8ff\	.	.	.
4r	.	4d\	.	8dd\	.	.	.
.	.	.	.	8an\J	.	.	.
=133	=133	=133	=133	=133	=133	=133	=133
4GG/	.	4r	.	8bn\L	.	2fff\]	.
.	.	.	.	8dd\	.	.	.
4r	.	4d\	.	8bn\	.	.	.
.	.	.	.	8g\J	.	.	.
4C/	.	4G/	.	8cc\L	.	[2eeen\	.
.	.	.	.	8een\	.	.	.
4r	.	4c\	.	8cc\	.	.	.
.	.	.	.	8g\J	.	.	.
=134	=134	=134	=134	=134	=134	=134	=134
4FF/	.	4r	.	8f/L	.	4eee\]	.
.	.	.	.	8an/	.	.	.
4r	.	4An/	.	8dd/	.	4ddd\	.
.	.	.	.	8an/J	.	.	.
4GG/	.	4r	.	8f/L	.	4ccc\	.
.	.	.	.	8bn/	.	.	.
4r	.	4Bn/	.	8g/	.	4ddd\	.
.	.	.	.	8f/J	.	.	.
=135	=135	=135	=135	=135	=135	=135	=135
4C/	.	4r	.	8en/L	.	8eeen\L	.
.	.	.	.	8g/	.	8ddd\	.
4r	.	2c\	.	8cc/	.	8eeen\	.
.	.	.	.	8een/J	.	8fff\J	.
4r	.	.	.	8gg\L	.	4ggg\	.
.	.	.	.	8ff\	.	.	.
4BB-/	.	4B-/	.	8een\	.	4ggg\	.
.	.	.	.	8dd\J	.	.	.
=136	=136	=136	=136	=136	=136	=136	=136
4AAn/	.	4An/	.	8cc#\L	.	2ggg\	.
.	.	.	.	8een\	.	.	.
4r	.	4en\	.	8cc#\	.	.	.
.	.	.	.	8an\J	.	.	.
4D\	.	4An/	.	8dd\L	.	[2fff\	.
.	.	.	.	8ff\	.	.	.
4r	.	4d\	.	8dd\	.	.	.
.	.	.	.	8an\J	.	.	.
=137	=137	=137	=137	=137	=137	=137	=137
4GG/	.	4r	.	8bn\L	.	2fff\]	.
.	.	.	.	8dd\	.	.	.
4r	.	4d\	.	8bn\	.	.	.
.	.	.	.	8g\J	.	.	.
4C/	.	4G/	.	8cc\L	.	2eeen\	.
.	.	.	.	8een\	.	.	.
4r	.	4c\	.	8cc\	.	.	.
.	.	.	.	8g\J	.	.	.
=138	=138	=138	=138	=138	=138	=138	=138
4FF/	<	4r	.	8an/L	<	8eeen\L	<
.	.	.	.	8dd/	.	8ddd\	.
4r	.	4F/	<	8an/	.	8ccc#\	.
.	.	.	.	8f/J	.	8ddd\J	.
4F\	.	4r	.	8an/L	.	8ccc#\L	.
.	.	.	.	8f/	.	8ddd\	.
4r	.	4f\	.	8an/	.	8fff\	.
.	.	.	.	8f/J	.	8ddd\J	.
=139	=139	=139	=139	=139	=139	=139	=139
4G\	.	4r	.	8en/L	.	2ccc\	.
.	.	.	.	8g/	.	.	.
4r	.	4g\	.	8f/	.	.	.
.	.	.	.	8en/J	.	.	.
4GG/	.	4r	.	8d/L	.	4bbn\	.
.	.	.	.	8f/	.	.	.
4r	.	4G/	.	8en/	.	8een\L	.
.	.	.	.	8d/J	.	8ff\J	.
=140	=140	=140	=140	=140	=140	=140	=140
4C/	pp	4G/	pp	4c/	pp	8gg\L	pp
.	.	.	.	.	.	8een\	.
4r	.	4G/	.	4r	.	8ff\	.
.	.	.	.	.	.	8dd\J	.
2r	.	4G/	.	2r	.	8een\L	.
.	.	.	.	.	.	8cc\	.
.	.	4G/	.	.	.	8dd\	.
.	.	.	.	.	.	8bn\J	.
=141	=141	=141	=141	=141	=141	=141	=141
4En\	.	1G	.	8g/L	.	4cc\	.
.	.	.	.	8en/	.	.	.
4r	.	.	.	8f/	.	4r	.
.	.	.	.	8d/J	.	.	.
2r	.	.	.	4c/	.	4r	.
.	.	.	.	4r	.	4cc\	.
=142	=142	=142	=142	=142	=142	=142	=142
4D\	.	4G/	.	1r	.	8bn\L	.
.	.	.	.	.	.	8cc\	.
4r	.	4G/	.	.	.	8bn\	.
.	.	.	.	.	.	8cc\J	.
2r	.	4G/	.	.	.	8dd\L	.
.	.	.	.	.	.	8een\	.
.	.	4G/	.	.	.	8dd\	.
.	.	.	.	.	.	8een\J	.
=143	=143	=143	=143	=143	=143	=143	=143
4GG/	.	1G	.	8Bn/L	.	4ff\	.
.	.	.	.	8c/	.	.	.
4GG/	.	.	.	8Bn/	.	4r	.
.	.	.	.	8c/J	.	.	.
4GG/	.	.	.	4d/	.	4r	.
4GG/	.	.	.	4r	.	8ee-\L	.
.	.	.	.	.	.	8ff\J	.
=144	=144	=144	=144	=144	=144	=144	=144
4C/	.	4G/	.	1r	.	8gg\L	.
.	.	.	.	.	.	8ee-\	.
4r	.	4G/	.	.	.	8ff\	.
.	.	.	.	.	.	8dd\J	.
2r	.	4G/	.	.	.	8ee-\L	.
.	.	.	.	.	.	8cc\	.
.	.	4G/	.	.	.	8dd\	.
.	.	.	.	.	.	8bn\J	.
=145	=145	=145	=145	=145	=145	=145	=145
4E-\	.	1G	.	8g/L	.	4cc\	.
.	.	.	.	8e-/	.	.	.
4r	.	.	.	8f/	.	4r	.
.	.	.	.	8d/J	.	.	.
2r	.	.	.	4c/	.	4r	.
.	.	.	.	4r	.	4cc\	.
=146	=146	=146	=146	=146	=146	=146	=146
4BB-/	.	4A-/	.	1r	.	8dd\L	.
.	.	.	.	.	.	8ee-\	.
4r	.	4A-/	.	.	.	8dd\	.
.	.	.	.	.	.	8ee-\J	.
2r	.	4A-/	.	.	.	8ff\L	.
.	.	.	.	.	.	8gg\	.
.	.	4A-/	.	.	.	8ff\	.
.	.	.	.	.	.	8gg\J	.
=147	=147	=147	=147	=147	=147	=147	=147
4BB-/	.	2.D/	.	8f/L	.	4aa-\	.
.	.	.	.	8g/	.	.	.
4BB-/	.	.	.	8f/	.	4r	.
.	.	.	.	8g/J	.	.	.
4BB-/	.	.	.	4a-/	.	4r	.
4BB-/	.	4B-/	.	4r	.	8gg\L	.
.	.	.	.	.	.	8aa-\J	.
=148	=148	=148	=148	=148	=148	=148	=148
4EE-/	.	4B-/	.	1r	.	8bb-\L	.
.	.	.	.	.	.	8gg\	.
4r	.	4B-/	.	.	.	8aa-\	.
.	.	.	.	.	.	8ff\J	.
2r	.	4B-/	.	.	.	8gg\L	.
.	.	.	.	.	.	8ee-\	.
.	.	4B-/	.	.	.	8ff\	.
.	.	.	.	.	.	8dd\J	.
=149	=149	=149	=149	=149	=149	=149	=149
4G\	.	1B-	.	8b-/L	.	4ee-\	.
.	.	.	.	8g/	.	.	.
4r	.	.	.	8a-/	.	4r	.
.	.	.	.	8f/J	.	.	.
2r	.	.	.	4e-/	.	4r	.
.	.	.	.	4r	.	4ee-\	.
=150	=150	=150	=150	=150	=150	=150	=150
4C/	.	4B-/	.	1r	.	8een\L	.
.	.	.	.	.	.	8ff\	.
4r	.	4B-/	.	.	.	8een\	.
.	.	.	.	.	.	8ff\J	.
2r	.	4B-/	.	.	.	8gg\L	.
.	.	.	.	.	.	8aa-\	.
.	.	4B-/	.	.	.	8gg\	.
.	.	.	.	.	.	8aa-\J	.
=151	=151	=151	=151	=151	=151	=151	=151
4C/	.	2.En/	.	8g/L	.	4bb-\	.
.	.	.	.	8a-/	.	.	.
4C/	.	.	.	8g/	.	4r	.
.	.	.	.	8a-/J	.	.	.
4C/	.	.	.	4b-\	.	4r	.
4BB-/	.	4c\	.	4r	.	4een\	.
=152	=152	=152	=152	=152	=152	=152	=152
4AA-/	<	4c\	<	1r	.	8ff\L	<
.	.	.	.	.	.	8gg\	<
4r	<	4c\	<	.	.	8ff\	.
.	.	.	.	.	.	8gg\J	.
2r	.	4c\	.	.	.	8aa-\L	.
.	.	.	.	.	.	8bb-\	.
.	.	4c\	.	.	.	8aa-\	.
.	.	.	.	.	.	8bb-\J	.
=153	=153	=153	=153	=153	=153	=153	=153
4AA-/	.	2.c\	.	8cc\L	<	4ccc\	.
.	.	.	.	8bn\	<	.	.
4r	.	.	.	8cc\	.	4r	.
.	.	.	.	8bn\J	.	.	.
2r	.	.	.	4cc\	.	4r	.
.	.	4F/	.	4r	.	4ccc\	.
=154	=154	=154	=154	=154	=154	=154	=154
4AA-/	.	4F#/	.	1r	.	2.ccc\	.
4r	.	4F#/	.	.	.	.	.
2r	.	4F#/	.	.	.	.	.
.	.	4F#/	.	.	.	4ddd\	.
=155	=155	=155	=155	=155	=155	=155	=155
4AA-/	.	2F#/	.	8cc\L	.	2eee-\	.
.	.	.	.	8dd\	.	.	.
4AA-/	.	.	.	8cc\	.	.	.
.	.	.	.	8dd\J	.	.	.
4AA-/	.	4C/	.	4ee-\	.	2f#/	.
4AA-/	.	4c\	.	4c/	.	.	.
=156	=156	=156	=156	=156	=156	=156	=156
[1GG	f	4d\	f	4Bn/	f	8G/L	f
.	.	.	.	.	.	8g/	.
.	.	4r	.	4g/	.	8bn/	.
.	.	.	.	.	.	8dd/J	.
.	.	4r	.	[2a-/	.	8ff\L	.
.	.	.	.	.	.	8aa-\	.
.	.	4Bn/	.	.	.	8ff\	.
.	.	.	.	.	.	8dd\J	.
=157	=157	=157	=157	=157	=157	=157	=157
4GG/]	.	4c\	.	4a-/]	.	8ff\L	.
.	.	.	.	.	.	8ee-\	.
4G\	.	4e-\	.	4g/	.	8dd\	.
.	.	.	.	.	.	8cc\J	.
4G\	.	4d\	.	4f/	.	8bn/L	.
.	.	.	.	.	.	8cc/	.
4G\	.	4c\	.	4e-/	.	8a-/	.
.	.	.	.	.	.	8f#/J	.
=158	=158	=158	=158	=158	=158	=158	=158
[1GG	.	4Bn/	.	4d/	f	8G/L	f
.	.	.	.	.	.	8g/	.
.	.	4r	.	4g/	.	8bn/	.
.	.	.	.	.	.	8dd/J	.
.	.	4r	.	[2a-/	.	8ff\L	.
.	.	.	.	.	.	8aa-\	.
.	.	4Bn/	.	.	.	8ff\	.
.	.	.	.	.	.	8dd\J	.
=159	=159	=159	=159	=159	=159	=159	=159
4GG/]	.	4c\	.	4a-/]	.	8ff\L	.
.	.	.	.	.	.	8ee-\	.
4G\	.	4e-\	.	4g/	.	8dd\	.
.	.	.	.	.	.	8cc\J	.
4G\	.	4d\	.	4f/	.	8bn/L	.
.	.	.	.	.	.	8cc/	.
4G\	.	4c\	.	4e-/	.	8a-/	.
.	.	.	.	.	.	8f#/J	.
=160	=160	=160	=160	=160	=160	=160	=160
4GG/	f	4Bn/	f	4d/	f	8G/L	f
.	.	.	.	.	.	8g/	.
4r	.	4r	.	4g/	.	8bn/	.
.	.	.	.	.	.	8dd/J	.
2r	.	2r	.	[2a-/	.	8ff\L	.
.	.	.	.	.	.	8dd\	.
.	.	.	.	.	.	8bn\	.
.	.	.	.	.	.	8dd\J	.
=161	=161	=161	=161	=161	=161	=161	=161
1r	.	1r	.	1a-]	.	8ff\L	.
.	.	.	.	.	.	8dd\	.
.	.	.	.	.	.	8bn\	.
.	.	.	.	.	.	8dd\J	.
.	.	.	.	.	.	8ff\L	.
.	.	.	.	.	.	8dd\	.
.	.	.	.	.	.	8bn\	.
.	.	.	.	.	.	8dd\J	.
=162	=162	=162	=162	=162	=162	=162	=162
4GG/	f	4Bn\ 4d\	f	4r	.	8G/L	f
.	.	.	.	.	.	8bn/	.
4r	.	4r	.	4a-/	.	8dd/	.
.	.	.	.	.	.	8ff/J	.
2r	.	2r	.	[2Bn/	.	8aa-\L	.
.	.	.	.	.	.	8ff\	.
.	.	.	.	.	.	8dd\	.
.	.	.	.	.	.	8ff\J	.
=163	=163	=163	=163	=163	=163	=163	=163
1r	.	1r	.	1B]	.	8aa-\L	.
.	.	.	.	.	.	8ff\	.
.	.	.	.	.	.	8dd\	.
.	.	.	.	.	.	8ff\J	.
.	.	.	.	.	.	8aa-\L	.
.	.	.	.	.	.	8ff\	.
.	.	.	.	.	.	8dd\	.
.	.	.	.	.	.	8ff\J	.
=164	=164	=164	=164	=164	=164	=164	=164
1r	.	1r	.	1r	.	1aa-	>
=165	=165	=165	=165	=165	=165	=165	=165
1r	.	1r	.	1r	.	1ff#	p
=166	=166	=166	=166	=166	=166	=166	=166
4CC/	ff	4C/	ff	4G/ 4e-/	ff	8gg\L	ff
.	.	.	.	.	.	8ee-\	.
2C/	.	2c\	.	2G/ 2e-/	.	8ff\	.
.	.	.	.	.	.	8dd\J	.
.	.	.	.	.	.	8ee-\L	.
.	.	.	.	.	.	8cc\	.
[4C/	.	[4c\	.	[4G/ [4e-/	.	8dd\	.
.	.	.	.	.	.	8bn\J	.
=167	=167	=167	=167	=167	=167	=167	=167
4C/]	.	4c\]	.	4G/] 4e-/]	.	8cc\L	.
.	.	.	.	.	.	8bn\	.
2C/	.	2c\	.	2G/ 2e-/	.	8cc\	.
.	.	.	.	.	.	8dd\J	.
.	.	.	.	.	.	8ee-\L	.
.	.	.	.	.	.	8een\	.
4C/	.	4c\	.	4G/ 4e-/	.	8ff\	.
.	.	.	.	.	.	8ff#\J	.
=168	=168	=168	=168	=168	=168	=168	=168
4BBn/	.	4d\	.	4G/ 4f/	.	4gg\	.
4C/	.	4c\	.	4G/ 4e-/	.	4gg\	.
4GG/	.	4Bn/	.	4G/ 4d/	.	4gg\	.
4C/	.	4c\	.	4G/ 4e-/	.	4gg\	.
=169	=169	=169	=169	=169	=169	=169	=169
4GG/	.	4Bn/	.	4G/ 4d/	.	2.gg\	.
4GG/	.	4Bn/	.	4G/ 4d/	.	.	.
4GG/	.	4Bn/	.	4G/ 4d/	.	.	.
4GG/	.	4Bn/	.	4G/ 4d/	.	8ee-\L	.
.	.	.	.	.	.	8ff\J	.
=170	=170	=170	=170	=170	=170	=170	=170
4CC/	.	4C/	.	4G/ 4e-/	.	8gg\L	.
.	.	.	.	.	.	8ee-\	.
2C/	.	2c\	.	2G/ 2e-/	.	8ff\	.
.	.	.	.	.	.	8dd\J	.
.	.	.	.	.	.	8ee-\L	.
.	.	.	.	.	.	8cc\	.
[4C/	.	[4c\	.	[4G/ [4e-/	.	8dd\	.
.	.	.	.	.	.	8bn\J	.
=171	=171	=171	=171	=171	=171	=171	=171
4C/]	.	4c\]	.	4G/] 4e-/]	.	8cc\L	.
.	.	.	.	.	.	8bn\	.
4C/	.	4c\	.	4G/ 4e-/	.	8cc\	.
.	.	.	.	.	.	8dd\J	.
4C#/	.	4B-/	.	4G/ 4en/	.	8een\L	.
.	.	.	.	.	.	8ff#\	.
4C#/	.	4B-/	.	4G/ 4en/	.	8gg\	.
.	.	.	.	.	.	8aan\J	.
=172	=172	=172	=172	=172	=172	=172	=172
4D\	.	4B-/	.	4G/ 4d/	.	4bb-\	.
4E-\	.	4B-/	.	4g/	.	4c#/	.
4D\	.	4G/	.	4B-/	.	4d/	.
4DD/	.	4F#/	.	4An/	.	4d/	.
=173	=173	=173	=173	=173	=173	=173	=173
2.GG/	.	2.G/	.	2.G/	.	2.G/	.
4r	.	4r	.	8g/L	.	8gg\L	.
.	.	.	.	8f/J	.	8aa-\J	.
=174	=174	=174	=174	=174	=174	=174	=174
4C/	.	4g\	.	4en/	.	4bb-\	.
2C/	.	2c\	.	2c/ 2b-/	.	4een\	.
.	.	.	.	.	.	4ff\	.
4F\	.	4c\	.	4a-/	.	[4aa-\	.
=175	=175	=175	=175	=175	=175	=175	=175
4BB-/	.	4f\	.	4d/	.	4aa-\]	.
2BB-/	.	2B-/	.	2a-/	.	4dd\	.
.	.	.	.	.	.	4ee-\	.
4E-\	.	4B-/	.	4g/	.	[4gg\	.
=176	=176	=176	=176	=176	=176	=176	=176
4AA-/	.	4C/	.	4c/	.	4gg\]	.
4A-\	.	4c\	.	8d/L	.	8ff\L	.
.	.	.	.	8e-/J	.	8ee-\J	.
4A-\	.	4c\	.	4f/	.	4dd\	.
4A-\	.	4c\	.	4f#/	.	4cc\	.
=177	=177	=177	=177	=177	=177	=177	=177
2.G\	.	4d\	.	2.g/	.	4bn\	.
.	.	2Bn/	.	.	.	2dd\	.
4r	.	4r	.	4r	.	8ee-\L	ff
.	.	.	.	.	.	8ff\J	.
=178	=178	=178	=178	=178	=178	=178	=178
4CC/	ff	4C/	ff	4G/ 4e-/	ff	8gg\L	.
.	.	.	.	.	.	8ee-\	.
2C/	.	2c\	.	2G/ 2e-/	.	8ff\	.
.	.	.	.	.	.	8dd\J	.
.	.	.	.	.	.	8ee-\L	.
.	.	.	.	.	.	8cc\	.
[4C/	.	[4c\	.	[4G/ [4e-/	.	8dd\	.
.	.	.	.	.	.	8bn\J	.
=179	=179	=179	=179	=179	=179	=179	=179
4C/]	.	4c\]	.	4G/] 4e-/]	.	8cc\L	.
.	.	.	.	.	.	8bn\	.
4BB-/	.	4c\	.	4en/	.	8cc\	.
.	.	.	.	.	.	8dd\J	.
4AA-/	.	4c\	.	4f/	.	8ee-\L	.
.	.	.	.	.	.	8een\	.
4GG/	.	4en\	.	4c/ 4g/	.	8ff\	.
.	.	.	.	.	.	8gg\J	.
=180	=180	=180	=180	=180	=180	=180	=180
4FF/	.	4f\	.	4c/ 4a-/	.	4aa-\	.
4AA-/	.	4c\	.	4cc\	.	4f#/	.
4GG/	.	4c\	.	4e-/	.	4g/	.
4GG/	.	4Bn/	.	4d/	.	4g/	.
=181	=181	=181	=181	=181	=181	=181	=181
4C/	.	4c\	.	4c/	.	4c/	.
4r	.	4r	.	4r	.	8cc\L	p
.	.	.	.	.	.	8dd\J	.
4r	.	4r	.	4r	.	8ee-\L	.
.	.	.	.	.	.	8cc\	.
4GG/	p	4G/	p	4f/	p	8dd\	.
.	.	.	.	.	.	8bn\J	.
=182	=182	=182	=182	=182	=182	=182	=182
4C/	.	4G/	.	4e-/	.	4cc\	.
4r	.	4r	.	4r	.	8ee-\L	.
.	.	.	.	.	.	8ff\J	.
4r	.	4r	.	4r	.	8gg\L	.
.	.	.	.	.	.	8ee-\	.
4GG/	.	4G/	.	4d/ 4bn/	.	8ff\	.
.	.	.	.	.	.	8dd\J	.
=183	=183	=183	=183	=183	=183	=183	=183
4C/	.	4c\	.	4e-/ 4cc/	.	4ee-\	.
4r	.	4r	.	4r	.	8ccc\L	.
.	.	.	.	.	.	8ddd\J	.
4r	.	4r	.	4r	.	8eee-\L	.
.	.	.	.	.	.	8ggg\	.
4GG/	<	4G\ 4g\	<	4bn\	<	8eee-\	<
.	.	.	.	.	.	8ggg\J	<
=184	=184	=184	=184	=184	=184	=184	=184
4C/	.	4G\ 4g\	.	4cc\	<	8eee-\L	.
.	.	.	.	.	.	8ggg\	.
4GG/	.	4G\ 4g\	.	4b-\	.	8ddd\	.
.	.	.	.	.	.	8ggg\J	.
4C/	.	4G\ 4g\	.	4cc\	.	8eee-\L	.
.	.	.	.	.	.	8ggg\	.
4GG/	.	4G\ 4g\	.	4b-\	.	8ddd\	.
.	.	.	.	.	.	8ggg\J	.
=185	=185	=185	=185	=185	=185	=185	=185
4C/	.	4c\	.	4cc\	.	2eee-\	.
4r	.	2c\	.	2cc\	.	.	.
4B-\	.	.	.	.	.	2eeen\	.
4r	.	[4c\	.	[4cc\	.	.	.
=186	=186	=186	=186	=186	=186	=186	=186
4A-\	.	4c\]	.	4cc\]	.	2fff\	.
4r	.	2c\	.	2cc\	.	.	.
4F\	.	.	.	.	.	2aaa-\	.
4r	.	4c\	.	4cc\	.	.	.
=187	=187	=187	=187	=187	=187	=187	=187
4G\	f	4r	.	4r	.	1ggg	f
4r	.	8e-\L	f	8cc\L	f	.	.
.	.	8d\J	.	8dd\J	.	.	.
2r	.	4c\	.	4ee-\	.	.	.
.	.	4c\	.	4ee-\	.	.	.
=188	=188	=188	=188	=188	=188	=188	=188
4GG/	.	4r	.	4r	.	1gg	.
4r	.	8d\L	.	8bn\L	.	.	.
.	.	8c\J	.	8cc\J	.	.	.
2r	.	4Bn/	.	4dd\	.	.	.
.	.	4Bn/	.	4dd\	.	.	.
=189	=189	=189	=189	=189	=189	=189	=189
4C/	p	4c\	p	4cc\	p	2ee-\	p
4r	.	2C/	<	2c/	<	.	.
4BB-/	<	.	.	.	.	2een\	<
4r	.	[4C/	.	[4c/	<	.	.
=190	=190	=190	=190	=190	=190	=190	=190
4AA-/	.	4C/]	.	4c/]	.	2ff\	<
4r	.	2C/	.	2c/	.	.	.
4GG/	.	.	.	.	.	2gg\	.
4r	.	[4C/	.	[4c/	.	.	.
=191	=191	=191	=191	=191	=191	=191	=191
4FF/	.	4C/]	.	4c/]	.	1aa-	f
4r	.	8E-/L	f	8d/L	f	.	.
.	.	8D/J	.	8e-/J	.	.	.
2r	.	4C/	.	4e-/	.	.	.
.	.	4C/	.	4e-/	.	.	.
=192	=192	=192	=192	=192	=192	=192	=192
4AA-/	f	4r	.	4r	.	1f#	f
4r	.	8e-\L	f	8cc\L	f	.	.
.	.	8d\J	.	8dd\J	.	.	.
2r	.	4c\	.	4ee-\	.	.	.
.	.	4c\	.	4ee-\	.	.	.
=193	=193	=193	=193	=193	=193	=193	=193
4GG/	f	4r	.	4r	.	1g	f
4r	.	8e-\L	f	8cc\L	f	.	.
.	.	8d\J	.	8dd\J	.	.	.
2r	.	4c\	.	4ee-\	.	.	.
.	.	4c\	.	4ee-\	.	.	.
=194	=194	=194	=194	=194	=194	=194	=194
4GG/	f	4r	.	4r	.	1G	.
4r	.	8d\L	f	8bn\L	f	.	.
.	.	8c\J	.	8cc\J	.	.	.
2r	.	4Bn/	.	4dd\	.	.	.
.	.	4Bn/	.	4dd\	.	.	.
=195	=195	=195	=195	=195	=195	=195	=195
4C/	.	4c\	.	4cc\	.	4c/	f
4r	.	4r	.	4r	.	2ee-\	.
4r	.	[2G/	.	2e-/	.	.	.
4GG/	.	.	.	.	.	4cc\	.
=196	=196	=196	=196	=196	=196	=196	=196
4D\	.	4G/]	.	4f/	.	4bn\	.
4r	.	4r	.	4r	.	2ff\	.
4r	.	[2G/	.	2f/	.	.	.
4GG/	.	.	.	.	.	4dd\	.
=197	=197	=197	=197	=197	=197	=197	=197
4E-\	.	4G/]	.	4g/	.	4cc\	.
4r	.	4r	.	4r	.	2gg\	.
4r	.	2e-\	.	[2c/ 2g/	.	.	.
4C/	.	.	.	.	.	4ee-\	.
=198	=198	=198	=198	=198	=198	=198	=198
4F\	.	4d\	.	4c/] 4a-/	.	4dd\	.
4D\	.	4c\	.	4f/	.	4aa-\	.
4G\	.	4c\	.	4e-/	.	4cc\	.
4GG/	.	4d\	.	4f/	.	4bn\	.
=199	=199	=199	=199	=199	=199	=199	=199
4C/	.	4c\	.	4e-/	.	4cc\	.
4GG/	.	4r	.	4r	.	8c/L	.
.	.	.	.	.	.	8e-/J	.
4C/	.	[2G/	.	2e-/	.	8g\L	.
.	.	.	.	.	.	8cc\	.
4GG/	.	.	.	.	.	8ee-\	.
.	.	.	.	.	.	8cc\J	.
=200	=200	=200	=200	=200	=200	=200	=200
4D\	.	4G/]	.	4f/	.	4bn\	.
4GG/	.	4r	.	4r	.	8d/L	.
.	.	.	.	.	.	8f/J	.
4D\	.	[2G/	.	2f/	.	8bn\L	.
.	.	.	.	.	.	8dd\	.
4GG/	.	.	.	.	.	8ff\	.
.	.	.	.	.	.	8dd\J	.
=201	=201	=201	=201	=201	=201	=201	=201
4E-\	.	4G/]	.	4g/	.	8cc/L	.
.	.	.	.	.	.	8e-/	.
4r	.	4r	.	4r	.	8g/	.
.	.	.	.	.	.	8cc/J	.
4E-\	.	4e-\	.	4c/ 4g/	.	8ee-\L	.
.	.	.	.	.	.	8gg\	.
4r	.	4r	.	4r	.	8ccc\	.
.	.	.	.	.	.	8eee-\J	.
=202	=202	=202	=202	=202	=202	=202	=202
1r	.	1r	.	1r	.	4ggg\	>
.	.	.	.	.	.	4fff\	.
.	.	.	.	.	.	4eee-\	.
.	.	.	.	.	.	4ddd\	.
=203	=203	=203	=203	=203	=203	=203	=203
4F\	>	4d\	>	4c/ 4a-/	>	4ccc\	.
4r	.	4r	.	4r	.	4bb-\	.
4F\	.	4d\	.	4c/ 4a-/	.	4aa-\	.
4r	.	4r	.	4r	.	4gg\	.
=204	=204	=204	=204	=204	=204	=204	=204
1r	.	1r	.	1r	.	4ff\	.
.	.	.	.	.	.	4ee-\	.
.	.	.	.	.	.	4dd\	.
.	.	.	.	.	.	4aa-\	.
=205	=205	=205	=205	=205	=205	=205	=205
4G\	pp	4c\	pp	4e-/	pp	4cc\	pp
4r	.	4r	.	4r	.	4r	.
2r	.	2r	.	2r	.	2r	.
=206	=206	=206	=206	=206	=206	=206	=206
4GG/	.	4d\	.	4f/	.	4bn\	.
4r	.	4r	.	4r	.	4r	.
2r	.	4r	.	4r	.	2r	.
.	.	8En/L	p	8en/L	p	.	.
.	.	8F/J	.	8f/J	.	.	.
=207	=207	=207	=207	=207	=207	=207	=207
[1CC	.	8G/L	.	8g/L	.	2r	.
.	.	8En/	.	8en/	.	.	.
.	.	8F/	.	8f/	.	.	.
.	.	8D/J	.	8d/J	.	.	.
.	.	4C/	.	4c/	.	4r	.
.	.	4en\	.	4gg\	.	4ccc\	p
=208	=208	=208	=208	=208	=208	=208	=208
4CC/]	.	4f\	.	4aa-\	.	4ccc\	.
4C/	.	4en\	.	4gg\	.	4ccc\	.
4C/	.	4f\	.	4aa-\	.	4ccc\	.
4C/	.	8En/L	.	8en/L	.	4ccc\	.
.	.	8F/J	.	8f/J	.	.	.
=209	=209	=209	=209	=209	=209	=209	=209
[1CC	.	8G/L	.	8g/L	.	2.ccc\	.
.	.	8En/	.	8en/	.	.	.
.	.	8F/	.	8f/	.	.	.
.	.	8D/J	.	8d/J	.	.	.
.	.	4C/	.	4c/	.	.	.
.	.	4en\	.	4gg\	.	4ccc\	.
=210	=210	=210	=210	=210	=210	=210	=210
4CC/]	.	4f\	.	4aa-\	.	4ccc\	.
4C/	.	4en\	.	4gg\	.	4ccc\	.
4C/	.	4f\	.	4aa-\	.	4ccc\	.
4C/	.	8En/L	.	8en/L	.	4ccc\	.
.	.	8F/J	.	8f/J	.	.	.
=211	=211	=211	=211	=211	=211	=211	=211
2.CC/	.	8G/L	.	8g/L	.	2ccc\	.
.	.	8En/	.	8en/	.	.	.
.	.	8F/	.	8f/	.	.	.
.	.	8D/J	.	8d/J	.	.	.
.	.	4C/	.	4c/	.	4ccc\	p
4C/	.	4r	.	4r	.	4ccc\	.
=212	=212	=212	=212	=212	=212	=212	=212
2.CC/	.	8G/L	.	8g/L	.	2r	.
.	.	8En/	.	8en/	.	.	.
.	.	8F/	.	8f/	.	.	.
.	.	8D/J	.	8d/J	.	.	.
.	.	4C/	.	4c/	.	4eeen\	.
4C/	.	4r	.	4r	.	4eeen\	.
=213	=213	=213	=213	=213	=213	=213	=213
2.CC/	.	8G/L	.	8g/L	.	2r	.
.	.	8En/	.	8en/	.	.	.
.	.	8F/	.	8f/	.	.	.
.	.	8D/J	.	8d/J	.	.	.
.	.	4C/	.	4c/	.	4ggg\	.
4C/	.	4r	.	4r	.	4ggg\	.
=214	=214	=214	=214	=214	=214	=214	=214
1r	.	1r	.	1r	.	4cccc\	pp
.	.	.	.	.	.	4cccc\	.
.	.	.	.	.	.	4cccc\	.
.	.	.	.	.	.	4cccc\	.
=215	=215	=215	=215	=215	=215	=215	=215
1r	.	1r	.	1r	.	4cccc\	.
.	.	.	.	.	.	4r	.
.	.	.	.	.	.	4r	.
.	.	.	.	.	.	8r	.
.	.	.	.	.	.	24gg\LL	.
.	.	.	.	.	.	24aan\	.
.	.	.	.	.	.	24bbn\JJ	.
=216	=216	=216	=216	=216	=216	=216	=216
1r	.	1r	.	1r	.	4ccc\	.
.	.	.	.	.	.	4r	.
.	.	.	.	.	.	4r	.
.	.	.	.	.	.	8r	.
.	.	.	.	.	.	24g/LL	.
.	.	.	.	.	.	24an/	.
.	.	.	.	.	.	24bn/JJ	.
=217	=217	=217	=217	=217	=217	=217	=217
2r	.	2r	.	2r	.	4cc\	.
.	.	.	.	.	.	4r	.
4r	.	4r	.	4r	.	4r	.
8r	.	8r	.	8r	.	8r	.
24GG/LL	ff	24G/LL	ff	24G/LL	ff	24G/LL	ff
24AAn/	.	24An/	.	24An/	.	24An/	.
24BBn/JJ	.	24Bn/JJ	.	24Bn/JJ	.	24Bn/JJ	.
=218	=218	=218	=218	=218	=218	=218	=218
4C/	.	4c\	.	4c/	.	4c/	.
8r	.	8r	.	8r	.	8r	.
24GG/LL	.	24G/LL	.	24G/LL	.	24G/LL	.
24AAn/	.	24An/	.	24An/	.	24An/	.
24BBn/JJ	.	24Bn/JJ	.	24Bn/JJ	.	24Bn/JJ	.
4C/	.	4c\	.	4c/	.	4c/	.
8r	.	8r	.	8r	.	8r	.
24GG/LL	.	24G/LL	.	24G/LL	.	24G/LL	.
24AAn/	.	24An/	.	24An/	.	24An/	.
24BBn/JJ	.	24Bn/JJ	.	24Bn/JJ	.	24Bn/JJ	.
=219	=219	=219	=219	=219	=219	=219	=219
4C/	.	4c\	.	4c/	.	4c/	.
4r	.	4r	.	4r	.	4r	.
2r	.	2r	.	2r	.	2r	.
=220	=220	=220	=220	=220	=220	=220	=220
2r	.	2r	.	2r	.	2r	.
4r	.	4r	.	4r	.	4r	.
==	==	==	==	==	==	==	==
*-	*-	*-	*-	*-	*-	*-	*-
!!!ENC: Craig Stuart Sapp
!!!END: 2006/02/01/
